<?xml version="1.0" encoding="utf-8"?>
<map version="1.10" tiledversion="1.10.1" orientation="orthogonal" renderorder="right-down" width="50" height="23" tilewidth="16" tileheight="16" infinite="0" nextlayerid="4" nextobjectid="18">
 <tileset firstgid="1" source="Pixel Adventure.tsx" />
 <layer id="1" name="Background" width="50" height="23">
  <properties>
   <property name="BackgroundColor" value="Green" />
  </properties>
  <data encoding="csv">
24,24,24,24,24,24,24,24,24,24,24,24,24,24,24,24,24,24,24,24,24,24,24,24,24,24,24,24,24,24,24,24,24,24,24,24,24,24,24,24,24,24,24,24,24,24,24,24,24,24,
24,24,24,24,24,24,24,24,24,24,24,24,24,24,24,24,24,24,24,24,24,24,24,24,24,24,24,24,24,24,24,24,24,24,24,24,24,24,24,24,24,24,24,24,24,24,24,24,24,24,
24,24,24,24,24,24,24,24,24,24,24,24,24,24,24,24,24,24,24,24,24,24,24,24,24,24,24,24,24,24,24,24,24,24,24,24,24,24,24,24,24,24,24,24,24,24,24,24,24,24,
24,24,24,92,134,134,134,134,134,134,134,134,134,134,134,134,134,134,134,134,134,134,134,134,134,134,134,134,134,134,134,134,134,134,134,134,134,134,134,134,134,134,134,134,134,134,93,24,24,24,
24,24,24,113,0,0,0,0,0,0,0,0,0,0,0,0,0,0,0,0,0,0,0,0,0,0,0,0,0,0,0,0,0,0,0,0,0,0,0,0,0,0,0,111,24,24,24,24,24,24,
24,24,24,113,0,0,0,0,0,0,0,0,0,0,0,0,0,0,0,0,0,0,0,0,0,0,0,0,0,0,0,0,0,0,0,0,0,0,0,0,0,0,0,111,24,24,24,24,24,24,
24,24,24,113,0,0,0,0,13,14,14,14,15,0,0,0,0,0,0,0,0,0,0,0,0,0,0,0,13,14,14,14,15,0,0,0,0,0,0,0,0,0,0,111,24,24,24,24,24,24,
24,24,24,113,0,0,0,0,0,0,0,0,0,0,0,0,0,0,0,0,0,0,0,0,0,0,0,0,0,0,0,0,0,0,0,0,0,0,0,0,0,0,0,111,24,24,24,24,24,24,
24,24,24,113,0,0,7,8,8,8,9,0,0,0,0,0,0,0,0,0,7,8,8,8,9,0,0,0,0,0,0,0,0,0,7,8,8,8,9,0,0,0,0,111,24,24,24,24,24,24,
24,24,24,113,0,0,29,30,30,30,31,0,0,0,0,0,0,0,0,0,29,30,30,30,31,0,0,0,0,0,0,0,0,0,29,30,30,30,31,0,0,0,0,111,24,24,24,24,24,24,
24,24,24,113,0,0,0,0,0,0,0,0,0,0,0,0,0,0,0,0,0,0,0,0,0,0,0,0,0,0,0,0,0,0,0,0,0,0,0,0,0,0,0,111,24,24,24,24,24,24,
24,24,24,113,0,0,0,0,0,0,0,0,0,0,13,14,14,14,14,14,15,0,0,0,0,0,0,0,0,0,0,0,13,14,14,14,14,14,15,0,0,0,0,111,24,24,24,24,24,24,
24,24,24,113,0,0,0,0,0,0,0,0,0,0,0,0,0,0,0,0,0,0,0,0,0,0,0,0,0,0,0,0,0,0,0,0,0,0,0,0,0,0,0,111,24,24,24,24,24,24,
24,24,24,113,0,0,0,0,0,0,0,0,0,0,0,0,0,0,0,0,0,0,0,0,0,0,0,0,0,0,0,0,0,0,0,0,0,0,0,0,0,0,0,111,24,24,24,24,24,24,
24,24,24,113,41,41,42,0,0,0,0,0,0,0,0,0,0,0,0,0,0,0,0,0,0,0,0,0,0,0,0,0,0,0,0,0,0,0,40,41,41,42,0,111,24,24,24,24,24,24,
24,24,24,113,0,0,0,0,0,0,0,0,0,0,0,0,0,0,0,0,0,0,0,0,0,0,0,0,0,0,0,0,0,0,0,0,0,0,0,0,0,0,0,111,24,24,24,24,24,24,
24,24,24,113,0,0,0,0,0,0,0,0,0,0,0,0,0,0,0,0,0,0,0,0,0,0,0,0,0,0,0,0,0,0,0,0,0,0,0,0,0,0,0,111,24,24,24,24,24,24,
24,24,24,113,35,0,0,0,0,0,0,0,0,0,0,0,0,0,0,0,0,0,0,0,0,0,0,0,0,0,0,0,0,0,0,0,0,0,0,0,0,0,0,111,24,24,24,24,24,24,
24,24,24,113,7,8,8,8,8,9,0,0,0,0,0,7,8,8,8,9,0,0,0,0,0,7,8,8,8,9,0,0,0,0,0,7,8,8,8,9,0,0,0,111,24,24,24,24,24,24,
24,24,24,113,29,30,30,30,30,31,0,0,0,0,0,29,30,30,30,31,0,0,0,0,0,29,30,30,30,31,0,0,0,0,0,29,30,30,30,31,0,0,0,111,24,24,24,24,24,24,
24,24,24,114,90,90,90,90,90,90,90,90,90,90,90,90,90,90,90,90,90,90,90,90,90,90,90,90,90,90,90,90,90,90,90,90,90,90,90,90,90,90,90,115,24,24,24,24,24,24,
24,24,24,24,24,24,24,24,24,24,24,24,24,24,24,24,24,24,24,24,24,24,24,24,24,24,24,24,24,24,24,24,24,24,24,24,24,24,24,24,24,24,24,24,24,24,24,24,24,24,
24,24,24,24,24,24,24,24,24,24,24,24,24,24,24,24,24,24,24,24,24,24,24,24,24,24,24,24,24,24,24,24,24,24,24,24,24,24,24,24,24,24,24,24,24,24,24,24,24,24
</data>
 </layer>
 <objectgroup id="2" name="Spawnpoints">
  <object id="1" name="Player" type="Player" x="80" y="256" width="32" height="32" />
  <object id="2" name="Apple" type="Fruit" x="112" y="224" width="32" height="32" />
  <object id="3" name="Kiwi" type="Fruit" x="240" y="128" width="32" height="32" />
  <object id="4" name="Strawberry" type="Fruit" x="360" y="96" width="32" height="32" />
  <object id="5" name="Melon" type="Fruit" x="128" y="64" width="32" height="32" />
  <object id="6" name="Pineapple" type="Fruit" x="456" y="64" width="32" height="32" />
  <object id="7" name="Bananas" type="Fruit" x="304" y="112" width="32" height="32" />
  <object id="8" name="Orange" type="Fruit" x="560" y="208" width="32" height="32" />
  <object id="9" name="Chicken" type="Chicken" x="176" y="272" width="32" height="32">
   <properties>
    <property name="offPos" type="float" value="3" />
    <property name="offNeg" type="float" value="3" />
    </properties>
  </object>
  <object id="10" name="Mushroom" type="Mushroom" x="384" y="272" width="32" height="32">
   <properties>
    <property name="offPos" type="float" value="3" />
    <property name="offNeg" type="float" value="3" />
    </properties>
  </object>
  <object id="11" type="BlueBird" x="296" y="168" width="32" height="32">
   <properties>
    <property name="offPos" type="float" value="5" />
    <property name="offNeg" type="float" value="4" />
    </properties>
  </object>
  <object id="12" type="Saw" x="288" y="272" width="32" height="32">
   <properties>
    <property name="offNeg" type="float" value="2" />
    <property name="offPos" type="float" value="2" />
    <property name="isVertical" type="bool" value="false" />
    </properties>
  </object>
  <object id="13" type="Fire" x="480" y="272" width="16" height="32" />
  <object id="14" type="FallingPlatform" x="224" y="208" width="32" height="10" />
  <object id="15" type="FallingPlatform" x="344" y="168" width="32" height="10" />
  <object id="16" type="Checkpoint" x="544" y="208" width="64" height="64" />
  
 </objectgroup>
 <objectgroup id="3" name="Collisions">
  <object id="30" x="48" y="48" width="16" height="272" />
  <object id="31" x="64" y="48" width="656" height="16" />
  <object id="32" x="704" y="64" width="16" height="256" />
  <object id="33" x="64" y="304" width="640" height="16" />
  <object id="34" x="64" y="272" width="96" height="32" />
  <object id="35" x="608" y="272" width="96" height="32" />
  <object id="36" type="Platform" x="128" y="96" width="80" height="16" />
  <object id="37" type="Platform" x="448" y="96" width="80" height="16" />
  <object id="38" type="Platform" x="96" y="128" width="80" height="16" />
  <object id="39" type="Platform" x="336" y="128" width="80" height="16" />
  <object id="40" type="Platform" x="576" y="128" width="80" height="16" />
  <object id="41" type="Platform" x="224" y="176" width="96" height="16" />
  <object id="42" type="Platform" x="512" y="176" width="96" height="16" />
  <object id="43" type="Platform" x="240" y="288" width="80" height="16" />
  <object id="44" type="Platform" x="400" y="288" width="80" height="16" />
  <object id="45" type="Platform" x="560" y="240" width="80" height="16" />
 </objectgroup>
</map>
