<?xml version="1.0" encoding="UTF-8"?>
<map version="1.10" tiledversion="1.12.1" orientation="orthogonal" renderorder="right-down" width="40" height="35" tilewidth="16" tileheight="16" infinite="0" nextlayerid="4" nextobjectid="16">
 <tileset firstgid="1" source="Pixel Adventure.tsx"/>
 <layer id="1" name="Background" width="40" height="35">
  <properties>
   <property name="BackgroundColor" value="Purple"/>
  </properties>
  <data encoding="csv">
24,24,24,24,24,24,24,24,24,24,24,24,24,24,24,24,24,24,24,24,24,24,24,24,24,24,24,24,24,24,24,24,24,24,24,24,24,24,24,24,
24,24,24,24,24,24,24,24,24,24,24,24,24,24,24,24,24,24,24,24,24,24,24,24,24,24,24,24,24,24,24,24,24,24,24,24,24,24,24,24,
24,24,24,92,134,134,134,134,134,134,134,134,134,134,134,134,134,134,134,134,134,134,134,134,134,134,134,134,134,134,134,134,134,134,134,134,93,24,24,24,
24,24,24,113,0,0,0,0,0,0,0,0,0,0,0,0,0,0,0,0,0,0,0,0,0,0,0,0,0,0,0,0,0,0,0,0,111,24,24,24,
24,24,24,113,0,0,0,0,0,0,0,0,0,0,0,0,0,0,0,0,0,0,0,0,0,0,0,0,0,0,0,0,0,0,0,0,111,24,24,24,
24,24,24,113,0,0,0,0,0,0,0,0,0,0,0,0,0,0,0,0,0,0,0,0,0,0,0,0,0,0,0,0,0,0,0,0,111,24,24,24,
24,24,24,113,7,8,9,0,0,0,0,0,7,8,9,0,0,0,0,0,7,8,9,0,0,0,0,0,7,8,9,0,0,0,0,0,111,24,24,24,
24,24,24,113,29,30,31,0,0,0,0,0,29,30,31,0,0,0,0,0,29,30,31,0,0,0,0,0,29,30,31,0,0,0,0,0,111,24,24,24,
24,24,24,113,51,52,53,0,0,0,0,0,51,52,53,0,0,0,0,0,51,52,53,0,0,0,0,0,51,52,53,0,0,0,0,0,111,24,24,24,
24,24,24,113,0,0,0,0,0,0,0,0,0,0,0,0,0,0,0,0,0,0,0,0,0,0,0,0,0,0,0,0,0,0,0,0,111,24,24,24,
24,24,24,113,0,0,0,0,0,0,0,0,0,0,0,0,0,0,0,0,0,0,0,0,0,0,0,0,0,0,0,0,0,0,0,0,111,24,24,24,
24,24,24,113,0,0,7,8,9,0,0,0,0,0,0,0,7,8,9,0,0,0,0,0,7,8,9,0,0,0,0,0,0,0,0,0,111,24,24,24,
24,24,24,113,0,0,29,30,31,0,0,0,0,0,0,0,29,30,31,0,0,0,0,0,29,30,31,0,0,0,0,0,0,0,0,0,111,24,24,24,
24,24,24,113,0,0,51,52,53,0,0,0,0,0,0,0,51,52,53,0,0,0,0,0,51,52,53,0,0,0,0,0,0,0,0,0,111,24,24,24,
24,24,24,113,0,0,0,0,0,0,0,0,0,0,0,0,0,0,0,0,0,0,0,0,0,0,0,0,0,0,0,0,0,0,0,0,111,24,24,24,
24,24,24,113,0,0,0,0,0,0,0,0,0,0,0,0,0,0,0,0,0,0,0,0,0,0,0,0,0,0,0,0,0,0,0,0,111,24,24,24,
24,24,24,113,7,8,9,0,0,7,8,9,0,0,7,8,9,0,0,7,8,9,0,0,7,8,9,0,0,7,8,9,0,0,0,0,111,24,24,24,
24,24,24,113,29,30,31,0,0,29,30,31,0,0,29,30,31,0,0,29,30,31,0,0,29,30,31,0,0,29,30,31,0,0,0,0,111,24,24,24,
24,24,24,113,51,52,53,0,0,51,52,53,0,0,51,52,53,0,0,51,52,53,0,0,51,52,53,0,0,51,52,53,0,0,0,0,111,24,24,24,
24,24,24,113,0,0,0,0,0,0,0,0,0,0,0,0,0,0,0,0,0,0,0,0,0,0,0,0,0,0,0,0,0,0,0,0,111,24,24,24,
24,24,24,113,0,0,0,0,0,0,0,0,0,0,0,0,0,0,0,0,0,0,0,0,0,0,0,0,0,0,0,0,0,0,0,0,111,24,24,24,
24,24,24,113,35,0,0,0,0,0,0,0,0,0,0,0,0,0,0,0,0,0,0,0,0,0,0,0,0,0,0,0,0,0,0,0,111,24,24,24,
24,24,24,113,7,8,8,8,8,9,0,0,0,0,0,0,0,0,0,0,0,0,0,0,7,8,8,8,8,9,0,0,0,0,0,0,111,24,24,24,
24,24,24,113,29,30,30,30,30,31,0,0,0,0,0,0,0,0,0,0,0,0,0,0,29,30,30,30,30,31,0,0,0,0,0,0,111,24,24,24,
24,24,24,113,51,52,52,52,52,53,0,0,0,0,0,0,0,0,0,0,0,0,0,0,51,52,52,52,52,53,0,0,0,0,0,0,111,24,24,24,
24,24,24,114,90,90,90,90,90,90,90,90,90,90,90,90,90,90,90,90,90,90,90,90,90,90,90,90,90,90,90,90,90,90,90,90,115,24,24,24,
24,24,24,24,24,24,24,24,24,24,24,24,24,24,24,24,24,24,24,24,24,24,24,24,24,24,24,24,24,24,24,24,24,24,24,24,24,24,24,24,
24,24,24,24,24,24,24,24,24,24,24,24,24,24,24,24,24,24,24,24,24,24,24,24,24,24,24,24,24,24,24,24,24,24,24,24,24,24,24,24,
24,24,24,24,24,24,24,24,24,24,24,24,24,24,24,24,24,24,24,24,24,24,24,24,24,24,24,24,24,24,24,24,24,24,24,24,24,24,24,24,
24,24,24,24,24,24,24,24,24,24,24,24,24,24,24,24,24,24,24,24,24,24,24,24,24,24,24,24,24,24,24,24,24,24,24,24,24,24,24,24,
24,24,24,24,24,24,24,24,24,24,24,24,24,24,24,24,24,24,24,24,24,24,24,24,24,24,24,24,24,24,24,24,24,24,24,24,24,24,24,24,
24,24,24,24,24,24,24,24,24,24,24,24,24,24,24,24,24,24,24,24,24,24,24,24,24,24,24,24,24,24,24,24,24,24,24,24,24,24,24,24,
24,24,24,24,24,24,24,24,24,24,24,24,24,24,24,24,24,24,24,24,24,24,24,24,24,24,24,24,24,24,24,24,24,24,24,24,24,24,24,24,
24,24,24,24,24,24,24,24,24,24,24,24,24,24,24,24,24,24,24,24,24,24,24,24,24,24,24,24,24,24,24,24,24,24,24,24,24,24,24,24,
24,24,24,24,24,24,24,24,24,24,24,24,24,24,24,24,24,24,24,24,24,24,24,24,24,24,24,24,24,24,24,24,24,24,24,24,24,24,24,24
</data>
 </layer>
 <objectgroup id="2" name="Spawnpoints">
  <object id="1" name="Player" type="Player" x="80" y="336" width="32" height="32"/>
  <object id="2" name="Apple" type="Fruit" x="96" y="304" width="32" height="32"/>
  <object id="3" name="Kiwi" type="Fruit" x="176" y="248" width="32" height="32"/>
  <object id="4" name="Melon" type="Fruit" x="248" y="216" width="32" height="32"/>
  <object id="5" name="Orange" type="Fruit" x="320" y="184" width="32" height="32"/>
  <object id="6" name="Bananas" type="Fruit" x="416" y="224" width="32" height="32"/>
  <object id="7" name="Cherries" type="Fruit" x="176" y="88" width="32" height="32"/>
  <object id="8" name="Mushroom" type="Mushroom" x="384" y="336" width="32" height="32">
   <properties>
    <property name="offNeg" type="float" value="2"/>
    <property name="offPos" type="float" value="2"/>
   </properties>
  </object>
  <object id="9" name="Bunny" type="Bunny" x="433.645" y="305.558" width="34" height="44">
   <properties>
    <property name="offNeg" type="float" value="1.5"/>
    <property name="offPos" type="float" value="1.5"/>
   </properties>
  </object>
  <object id="10" type="FallingPlatform" x="176" y="288" width="32" height="10"/>
  <object id="11" type="FallingPlatform" x="248" y="256" width="32" height="10"/>
  <object id="12" type="FallingPlatform" x="320" y="224" width="32" height="10"/>
  <object id="13" type="Saw" x="368" y="304" width="32" height="32">
   <properties>
    <property name="isVertical" type="bool" value="false"/>
    <property name="offNeg" type="float" value="2"/>
    <property name="offPos" type="float" value="2"/>
   </properties>
  </object>
  <object id="14" type="Checkpoint" x="510.378" y="333.837" width="64" height="64"/>
 </objectgroup>
 <objectgroup id="3" name="Collisions">
  <object id="50" x="48" y="32" width="16" height="368"/>
  <object id="51" x="64" y="32" width="528" height="16"/>
  <object id="52" x="576" y="48" width="16" height="352"/>
  <object id="53" x="64" y="400" width="512" height="16"/>
  <object id="54" x="64" y="352" width="96" height="32"/>
  <object id="55" type="Platform" x="64" y="112" width="48" height="16"/>
  <object id="56" type="Platform" x="192" y="112" width="48" height="16"/>
  <object id="57" type="Platform" x="320" y="112" width="48" height="16"/>
  <object id="58" type="Platform" x="448" y="112" width="48" height="16"/>
  <object id="59" type="Platform" x="96" y="192" width="48" height="16"/>
  <object id="60" type="Platform" x="256" y="192" width="48" height="16"/>
  <object id="61" type="Platform" x="384" y="192" width="48" height="16"/>
  <object id="62" type="Platform" x="64" y="272" width="80" height="16"/>
  <object id="63" type="Platform" x="144" y="272" width="48" height="16"/>
  <object id="64" x="384" y="352" width="96" height="32"/>
  <object id="65" type="Platform" x="224" y="272" width="48" height="16"/>
  <object id="66" type="Platform" x="304" y="272" width="48" height="16"/>
  <object id="67" type="Platform" x="384" y="272" width="48" height="16"/>
  <object id="68" type="Platform" x="464" y="272" width="48" height="16"/>
 </objectgroup>
</map>
