<?xml version="1.0" encoding="utf-8"?>
<map version="1.10" tiledversion="1.10.1" orientation="orthogonal" renderorder="right-down" width="40" height="23" tilewidth="16" tileheight="16" infinite="0" nextlayerid="4" nextobjectid="17">
 <tileset firstgid="1" source="Pixel Adventure.tsx" />
 <layer id="1" name="Background" width="40" height="23">
  <properties>
   <property name="BackgroundColor" value="Purple" />
  </properties>
  <data encoding="csv">
24,24,24,24,24,24,24,24,24,24,24,24,24,24,24,24,24,24,24,24,24,24,24,24,24,24,24,24,24,24,24,24,24,24,24,24,24,24,24,24,
24,24,24,24,24,24,24,24,24,24,24,24,24,24,24,24,24,24,24,24,24,24,24,24,24,24,24,24,24,24,24,24,24,24,24,24,24,24,24,24,
24,24,24,24,24,24,24,24,24,24,24,24,24,24,24,24,24,24,24,24,24,24,24,24,24,24,24,24,24,24,24,24,24,24,24,24,24,24,24,24,
24,24,24,92,134,134,134,134,134,134,134,134,134,134,134,134,134,134,134,134,134,134,134,134,134,134,134,134,134,134,134,134,134,134,134,134,93,24,24,24,
24,24,24,113,0,0,0,0,0,0,0,0,0,0,0,0,0,0,0,0,0,0,0,0,0,0,0,0,0,0,0,0,0,0,0,0,111,24,24,24,
24,24,24,113,0,0,0,0,0,0,0,0,0,0,0,0,0,0,0,0,0,0,0,0,0,0,0,0,0,0,0,0,0,0,0,0,111,24,24,24,
24,24,24,113,0,13,14,14,14,15,0,0,0,0,0,0,0,0,0,0,0,0,0,0,0,0,0,0,0,13,14,14,14,15,0,0,111,24,24,24,
24,24,24,113,0,0,0,0,0,0,0,0,0,0,0,0,0,0,0,0,0,0,0,0,0,0,0,0,0,0,0,0,0,0,0,0,111,24,24,24,
24,24,24,113,0,0,0,0,0,0,0,0,0,13,14,14,14,14,15,0,0,0,0,0,0,0,0,0,0,0,0,0,0,0,0,0,111,24,24,24,
24,24,24,113,0,0,0,0,0,0,0,0,0,0,0,0,0,0,0,0,0,0,0,0,0,0,0,0,0,0,0,0,0,0,0,0,111,24,24,24,
24,24,24,113,0,0,0,0,0,0,0,0,0,0,0,0,0,0,0,0,0,0,0,13,14,14,15,0,0,0,0,0,0,0,0,0,111,24,24,24,
24,24,24,113,0,0,0,0,0,0,0,0,0,0,0,0,0,0,0,0,0,0,0,0,0,0,0,0,0,0,0,0,0,0,0,0,111,24,24,24,
24,24,24,113,41,41,42,0,0,0,0,0,0,0,0,0,0,0,0,0,0,0,0,0,0,0,0,0,0,0,40,41,41,42,0,0,111,24,24,24,
24,24,24,113,0,0,0,0,0,0,0,0,0,0,0,0,0,0,0,0,0,0,0,0,0,0,0,0,0,0,0,0,0,0,0,0,111,24,24,24,
24,24,24,113,0,0,0,0,0,0,0,0,0,0,0,13,14,14,14,14,14,15,0,0,0,0,0,0,0,0,0,0,0,0,0,0,111,24,24,24,
24,24,24,113,0,0,0,0,0,0,0,0,0,0,0,0,0,0,0,0,0,0,0,0,0,0,0,0,0,0,0,0,0,0,0,0,111,24,24,24,
24,24,24,113,35,0,0,0,0,0,0,0,0,0,0,0,0,0,0,0,0,0,0,0,0,0,0,0,0,0,0,0,0,0,0,0,111,24,24,24,
24,24,24,113,7,8,8,8,8,9,0,0,0,0,0,0,0,0,0,0,0,0,0,0,0,0,0,0,7,8,8,8,8,9,0,0,111,24,24,24,
24,24,24,113,29,30,30,30,30,31,0,0,0,0,0,0,0,0,0,0,0,0,0,0,0,0,0,0,29,30,30,30,30,31,0,0,111,24,24,24,
24,24,24,114,90,90,90,90,90,90,90,90,90,90,90,90,90,90,90,90,90,90,90,90,90,90,90,90,90,90,90,90,90,90,90,90,115,24,24,24,
24,24,24,24,24,24,24,24,24,24,24,24,24,24,24,24,24,24,24,24,24,24,24,24,24,24,24,24,24,24,24,24,24,24,24,24,24,24,24,24,
24,24,24,24,24,24,24,24,24,24,24,24,24,24,24,24,24,24,24,24,24,24,24,24,24,24,24,24,24,24,24,24,24,24,24,24,24,24,24,24,
24,24,24,24,24,24,24,24,24,24,24,24,24,24,24,24,24,24,24,24,24,24,24,24,24,24,24,24,24,24,24,24,24,24,24,24,24,24,24,24
</data>
 </layer>
 <objectgroup id="2" name="Spawnpoints">
  <object id="1" name="Player" type="Player" x="80" y="256" width="32" height="32" />
  <object id="2" name="Apple" type="Fruit" x="96" y="224" width="32" height="32" />
  <object id="3" name="Kiwi" type="Fruit" x="112" y="72" width="32" height="32" />
  <object id="4" name="Strawberry" type="Fruit" x="240" y="96" width="32" height="32" />
  <object id="5" name="Pineapple" type="Fruit" x="376" y="120" width="32" height="32" />
  <object id="6" name="Melon" type="Fruit" x="480" y="56" width="32" height="32" />
  <object id="7" name="Cherries" type="Fruit" x="432" y="232" width="32" height="32" />
  <object id="8" name="Mushroom" type="Mushroom" x="240" y="192" width="32" height="32">
   <properties>
    <property name="offPos" type="float" value="2" />
    <property name="offNeg" type="float" value="2" />
    </properties>
  </object>
  <object id="9" name="Bunny" type="Bunny" x="416" y="272" width="34" height="44">
   <properties>
    <property name="offPos" type="float" value="1.5" />
    <property name="offNeg" type="float" value="1.5" />
    </properties>
  </object>
  <object id="10" type="FallingPlatform" x="176" y="192" width="32" height="10" />
  <object id="11" type="FallingPlatform" x="248" y="168" width="32" height="10" />
  <object id="12" type="FallingPlatform" x="320" y="144" width="32" height="10" />
  <object id="13" type="Saw" x="320" y="272" width="32" height="32">
   <properties>
    <property name="offNeg" type="float" value="2" />
    <property name="offPos" type="float" value="2" />
    <property name="isVertical" type="bool" value="false" />
    </properties>
  </object>
  <object id="14" type="Fire" x="448" y="272" width="16" height="32" />
  <object id="15" type="Checkpoint" x="464" y="192" width="64" height="64" />
  
 </objectgroup>
 <objectgroup id="3" name="Collisions">
  <object id="20" x="48" y="48" width="16" height="272" />
  <object id="21" x="64" y="48" width="528" height="16" />
  <object id="22" x="576" y="64" width="16" height="256" />
  <object id="23" x="64" y="304" width="512" height="16" />
  <object id="24" x="64" y="272" width="96" height="32" />
  <object id="25" x="448" y="272" width="96" height="32" />
  <object id="26" type="Platform" x="80" y="96" width="80" height="16" />
  <object id="27" type="Platform" x="464" y="96" width="80" height="16" />
  <object id="28" type="Platform" x="208" y="128" width="96" height="16" />
  <object id="29" type="Platform" x="368" y="160" width="64" height="16" />
  <object id="30" type="Platform" x="240" y="224" width="112" height="16" />
  <object id="31" type="Platform" x="64" y="192" width="48" height="16" />
  <object id="32" type="Platform" x="480" y="192" width="48" height="16" />
 </objectgroup>
</map>
