<?xml version="1.0" encoding="utf-8"?>
<map version="1.10" tiledversion="1.10.1" orientation="orthogonal" renderorder="right-down" width="80" height="23" tilewidth="16" tileheight="16" infinite="0" nextlayerid="4" nextobjectid="21">
 <tileset firstgid="1" source="Pixel Adventure.tsx" />
 <layer id="1" name="Background" width="80" height="23">
  <properties>
   <property name="BackgroundColor" value="Brown" />
  </properties>
  <data encoding="csv">
24,24,24,24,24,24,24,24,24,24,24,24,24,24,24,24,24,24,24,24,24,24,24,24,24,24,24,24,24,24,24,24,24,24,24,24,24,24,24,24,24,24,24,24,24,24,24,24,24,24,24,24,24,24,24,24,24,24,24,24,24,24,24,24,24,24,24,24,24,24,24,24,24,24,24,24,24,24,24,24,
24,24,24,24,24,24,24,24,24,24,24,24,24,24,24,24,24,24,24,24,24,24,24,24,24,24,24,24,24,24,24,24,24,24,24,24,24,24,24,24,24,24,24,24,24,24,24,24,24,24,24,24,24,24,24,24,24,24,24,24,24,24,24,24,24,24,24,24,24,24,24,24,24,24,24,24,24,24,24,24,
24,24,24,24,24,24,24,24,24,24,24,24,24,24,24,24,24,24,24,24,24,24,24,24,24,24,24,24,24,24,24,24,24,24,24,24,24,24,24,24,24,24,24,24,24,24,24,24,24,24,24,24,24,24,24,24,24,24,24,24,24,24,24,24,24,24,24,24,24,24,24,24,24,24,24,24,24,24,24,24,
24,24,24,92,134,134,134,134,134,134,134,134,134,134,134,134,134,134,134,134,134,134,134,134,134,134,134,134,134,134,134,134,134,134,134,134,134,134,134,134,134,134,134,134,134,134,134,134,134,134,134,134,134,134,134,134,134,134,134,134,134,134,134,134,134,134,134,134,134,134,134,134,134,134,134,134,93,24,24,24,
24,24,24,113,0,0,0,0,0,0,0,0,0,0,0,0,0,0,0,0,0,0,0,0,0,0,0,0,0,0,0,0,0,0,0,0,0,0,0,0,0,0,0,0,0,0,0,0,0,0,0,0,0,0,0,0,0,0,0,0,0,0,0,0,0,0,0,0,0,0,0,0,0,0,0,0,111,24,24,24,
24,24,24,113,0,0,0,0,0,0,0,0,0,0,0,0,0,0,0,0,0,0,0,0,0,0,0,0,0,0,0,0,0,0,0,0,0,0,0,0,0,0,0,0,0,0,0,0,0,0,0,0,0,0,0,0,0,0,0,0,0,0,0,0,0,0,0,0,0,0,0,0,0,0,0,0,111,24,24,24,
24,24,24,113,0,0,0,0,0,0,0,0,0,0,0,0,0,0,0,0,0,0,0,0,0,0,0,0,0,0,0,0,0,0,0,0,0,0,0,0,0,0,0,0,0,0,0,0,0,0,0,0,0,0,0,0,0,0,0,0,0,0,0,0,0,0,0,0,0,0,0,0,0,0,0,0,111,24,24,24,
24,24,24,113,0,0,0,0,13,14,15,0,0,0,0,0,0,0,0,0,0,0,0,0,0,0,0,0,13,14,15,0,0,0,0,0,0,0,0,0,0,0,0,0,13,14,15,0,0,0,0,0,0,0,0,0,0,0,0,0,0,0,0,0,0,0,0,0,0,0,0,0,0,0,0,0,111,24,24,24,
24,24,24,113,0,0,0,0,0,0,0,0,0,0,0,0,0,0,0,0,0,0,0,0,0,0,0,0,0,0,0,0,0,0,0,0,0,0,0,0,0,0,0,0,0,0,0,0,0,0,0,0,0,0,0,0,0,0,0,0,0,0,0,0,0,0,0,0,0,0,0,0,0,0,0,0,111,24,24,24,
24,24,24,113,0,0,0,0,0,0,0,0,0,0,0,0,0,0,0,0,0,0,0,0,0,0,0,0,0,0,0,0,0,0,0,0,0,0,0,0,0,0,0,0,0,0,0,0,0,0,0,0,0,0,0,0,0,0,0,0,0,0,0,0,0,0,0,0,0,0,0,0,0,0,0,0,111,24,24,24,
24,24,112,113,0,0,0,0,0,0,0,0,0,0,0,0,0,0,0,0,0,0,0,0,0,0,0,0,0,0,0,0,0,0,0,0,0,0,0,0,0,0,0,0,0,0,0,0,0,0,0,0,0,0,0,0,0,0,0,0,0,0,0,0,0,0,0,0,0,0,0,0,0,0,0,0,111,24,24,24,
24,24,112,113,0,0,0,0,0,0,0,0,0,0,0,0,0,0,0,0,0,0,0,0,0,0,0,0,0,0,0,0,0,0,0,0,0,0,0,0,0,0,0,0,0,0,0,0,0,0,0,0,0,0,0,0,0,0,0,0,0,0,0,0,0,0,0,0,0,0,0,0,0,0,0,0,111,24,24,24,
24,24,112,113,41,41,42,0,0,0,0,0,0,0,41,41,42,0,0,0,41,41,42,0,0,0,0,0,41,41,42,0,0,0,41,41,42,0,0,0,41,41,42,0,0,0,41,41,42,0,0,0,0,0,40,41,41,42,0,0,0,0,0,0,0,0,0,0,0,40,41,41,42,0,0,0,111,24,24,24,
24,24,112,113,0,0,0,0,0,0,0,0,0,0,0,0,0,0,0,0,0,0,0,0,0,0,0,0,0,0,0,0,0,0,0,0,0,0,0,0,0,0,0,0,0,0,0,0,0,0,0,0,0,0,0,0,0,0,0,0,0,0,0,0,0,0,0,0,0,0,0,0,0,0,0,0,111,24,24,24,
24,24,112,113,0,0,0,0,0,0,0,0,0,0,0,0,0,0,0,0,0,0,0,0,0,0,0,0,0,0,0,0,0,0,0,0,0,0,0,0,0,0,0,0,0,0,0,0,0,0,0,0,0,0,0,0,0,0,0,0,0,0,0,0,0,0,0,0,0,0,0,0,0,0,0,0,111,24,24,24,
24,24,24,113,35,0,0,0,0,0,0,0,0,0,0,0,0,0,0,0,0,0,0,0,0,0,0,0,0,0,0,0,0,0,0,0,0,0,0,0,0,0,0,0,0,0,0,0,0,0,0,0,0,0,0,0,0,0,0,0,0,0,0,0,0,0,0,0,0,0,0,0,0,0,0,0,111,24,24,24,
24,24,24,113,7,8,8,8,8,8,8,8,8,9,0,0,0,7,8,9,0,0,0,7,8,9,0,0,0,7,8,9,0,0,0,7,8,9,0,0,0,7,8,9,0,0,0,7,8,9,0,0,0,7,8,9,0,0,0,7,8,9,7,8,9,7,8,9,7,8,9,7,8,9,0,0,111,24,24,24,
24,24,24,113,29,30,30,30,30,30,30,30,30,31,0,0,0,29,30,31,0,0,0,29,30,31,0,0,0,29,30,31,0,0,0,29,30,31,0,0,0,29,30,31,0,0,0,29,30,31,0,0,0,29,30,31,0,0,0,29,30,31,29,30,31,29,30,31,29,30,31,29,30,31,0,0,111,24,24,24,
24,24,24,113,51,52,52,52,52,52,52,52,52,53,0,0,0,51,52,53,0,0,0,51,52,53,0,0,0,51,52,53,0,0,0,51,52,53,0,0,0,51,52,53,0,0,0,51,52,53,0,0,0,51,52,53,0,0,0,51,52,53,51,52,53,51,52,53,51,52,53,51,52,53,0,0,111,24,24,24,
24,24,24,114,90,90,90,90,90,90,90,90,90,90,90,90,90,90,90,90,90,90,90,90,90,90,90,90,90,90,90,90,90,90,90,90,90,90,90,90,90,90,90,90,90,90,90,90,90,90,90,90,90,90,90,90,90,90,90,90,90,90,90,90,90,90,90,90,90,90,90,90,90,90,90,90,115,24,24,24,
24,24,24,24,24,24,24,24,24,24,24,24,24,24,24,24,24,24,24,24,24,24,24,24,24,24,24,24,24,24,24,24,24,24,24,24,24,24,24,24,24,24,24,24,24,24,24,24,24,24,24,24,24,24,24,24,24,24,24,24,24,24,24,24,24,24,24,24,24,24,24,24,24,24,24,24,24,24,24,24,
24,24,24,24,24,24,24,24,24,24,24,24,24,24,24,24,24,24,24,24,24,24,24,24,24,24,24,24,24,24,24,24,24,24,24,24,24,24,24,24,24,24,24,24,24,24,24,24,24,24,24,24,24,24,24,24,24,24,24,24,24,24,24,24,24,24,24,24,24,24,24,24,24,24,24,24,24,24,24,24,
24,24,24,24,24,24,24,24,24,24,24,24,24,24,24,24,24,24,24,24,24,24,24,24,24,24,24,24,24,24,24,24,24,24,24,24,24,24,24,24,24,24,24,24,24,24,24,24,24,24,24,24,24,24,24,24,24,24,24,24,24,24,24,24,24,24,24,24,24,24,24,24,24,24,24,24,24,24,24,24
</data>
 </layer>
 <objectgroup id="2" name="Spawnpoints">
  <object id="1" name="Player" type="Player" x="80" y="224" width="32" height="32" />
  <object id="2" name="Strawberry" type="Fruit" x="112" y="160" width="32" height="32" />
  <object id="3" name="Pineapple" type="Fruit" x="240" y="128" width="32" height="32" />
  <object id="4" name="Melon" type="Fruit" x="456" y="120" width="32" height="32" />
  <object id="5" name="Kiwi" type="Fruit" x="640" y="128" width="32" height="32" />
  <object id="6" name="Cherries" type="Fruit" x="800" y="160" width="32" height="32" />
  <object id="7" name="Orange" type="Fruit" x="944" y="72" width="32" height="32" />
  <object id="8" name="Bananas" type="Fruit" x="1056" y="168" width="32" height="32" />
  <object id="9" name="Chicken" type="Chicken" x="176" y="240" width="32" height="32">
   <properties>
    <property name="offPos" type="float" value="2" />
    <property name="offNeg" type="float" value="2" />
    </properties>
  </object>
  <object id="10" name="Mushroom" type="Mushroom" x="432" y="144" width="32" height="32">
   <properties>
    <property name="offPos" type="float" value="2" />
    <property name="offNeg" type="float" value="2" />
    </properties>
  </object>
  <object id="11" name="Bunny" type="Bunny" x="688" y="224" width="34" height="44">
   <properties>
    <property name="offPos" type="float" value="1.5" />
    <property name="offNeg" type="float" value="1.5" />
    </properties>
  </object>
  <object id="12" type="BlueBird" x="912" y="168" width="32" height="32">
   <properties>
    <property name="offPos" type="float" value="5" />
    <property name="offNeg" type="float" value="4" />
    </properties>
  </object>
  <object id="13" type="Saw" x="304" y="144" width="32" height="32">
   <properties>
    <property name="offNeg" type="float" value="3" />
    <property name="offPos" type="float" value="3" />
    <property name="isVertical" type="bool" value="true" />
    </properties>
  </object>
  <object id="14" type="Saw" x="656" y="208" width="32" height="32">
   <properties>
    <property name="offNeg" type="float" value="3" />
    <property name="offPos" type="float" value="3" />
    <property name="isVertical" type="bool" value="true" />
    </properties>
  </object>
  <object id="15" type="Fire" x="512" y="272" width="16" height="32" />
  <object id="16" type="Fire" x="848" y="272" width="16" height="32" />
  <object id="17" type="FallingPlatform" x="856" y="208" width="32" height="10" />
  <object id="18" type="FallingPlatform" x="976" y="176" width="32" height="10" />
  <object id="19" type="Checkpoint" x="1136" y="208" width="64" height="64" />
  
 </objectgroup>
 <objectgroup id="3" name="Collisions">
  <object id="80" x="48" y="48" width="16" height="272" />
  <object id="81" x="64" y="48" width="1152" height="16" />
  <object id="82" x="1200" y="64" width="16" height="256" />
  <object id="83" x="64" y="304" width="1152" height="16" />
  <object id="84" x="64" y="272" width="160" height="32" />
  <object id="85" type="Platform" x="64" y="192" width="48" height="16" />
  <object id="86" type="Platform" x="208" y="192" width="48" height="16" />
  <object id="87" type="Platform" x="320" y="176" width="48" height="16" />
  <object id="88" type="Platform" x="432" y="176" width="48" height="16" />
  <object id="89" type="Platform" x="624" y="176" width="48" height="16" />
  <object id="90" type="Platform" x="752" y="192" width="48" height="16" />
  <object id="91" type="Platform" x="880" y="192" width="48" height="16" />
  <object id="92" type="Platform" x="1024" y="192" width="80" height="16" />
  <object id="93" type="Platform" x="1104" y="208" width="80" height="16" />
  <object id="94" x="176" y="128" width="16" height="32" />
  <object id="95" x="448" y="128" width="16" height="32" />
 </objectgroup>
</map>
