<?xml version="1.0" encoding="UTF-8"?>
<map version="1.10" tiledversion="1.12.1" orientation="orthogonal" renderorder="right-down" width="70" height="23" tilewidth="16" tileheight="16" infinite="0" nextlayerid="4" nextobjectid="31">
 <tileset firstgid="1" source="Pixel Adventure.tsx"/>
 <layer id="1" name="Background" width="70" height="23">
  <properties>
   <property name="BackgroundColor" value="Brown"/>
  </properties>
  <data encoding="csv">
24,24,24,24,24,24,24,24,24,24,24,24,24,24,24,24,24,24,24,24,24,24,24,24,24,24,24,24,24,24,24,24,24,24,24,24,24,24,24,24,24,24,24,24,24,24,24,24,24,24,24,24,24,24,24,24,24,24,24,24,24,24,24,24,24,24,24,24,24,24,
24,24,24,24,24,24,24,24,24,24,24,24,24,24,24,24,24,24,24,24,24,24,24,24,24,24,24,24,24,24,24,24,24,24,24,24,24,24,24,24,24,24,24,24,24,24,24,24,24,24,24,24,24,24,24,24,24,24,24,24,24,24,24,24,24,24,24,24,24,24,
24,24,24,24,24,24,24,24,24,24,24,24,24,24,24,24,24,24,24,24,24,24,24,24,24,24,24,24,24,24,24,24,24,24,24,24,24,24,24,24,24,24,24,24,24,24,24,24,24,24,24,24,24,24,24,24,24,24,24,24,24,24,24,24,24,24,24,24,24,24,
24,24,24,92,134,134,134,134,134,134,134,134,134,134,134,134,134,134,134,134,134,134,134,134,134,134,134,134,134,134,134,134,134,134,134,134,134,134,134,134,134,134,134,134,134,134,134,134,134,134,134,134,134,134,134,134,134,134,134,134,134,134,134,93,112,112,112,24,24,24,
24,24,24,113,0,0,0,0,0,0,0,0,0,0,0,0,0,56,56,56,0,0,0,0,0,0,0,0,0,0,0,0,0,0,0,0,0,0,0,0,0,0,0,0,0,0,0,0,0,0,0,0,0,0,0,0,0,0,0,0,0,0,0,111,24,24,112,24,24,24,
24,24,24,113,0,56,56,56,56,56,56,0,0,0,0,0,0,56,56,56,56,56,56,0,0,0,0,56,56,56,56,56,0,0,0,0,0,0,56,56,56,56,56,0,0,0,0,56,56,56,56,56,0,0,0,0,0,0,50,50,50,50,0,111,24,24,24,24,24,24,
24,24,24,113,0,78,41,41,41,41,78,0,0,0,0,0,0,78,78,78,78,78,78,0,0,0,0,78,78,78,78,78,0,0,0,0,0,0,78,78,78,78,78,0,0,0,0,78,78,78,78,78,0,0,0,0,0,0,72,72,72,72,0,111,24,24,24,24,24,24,
24,24,24,113,0,0,0,0,0,0,0,0,0,0,13,14,14,14,14,14,15,0,0,0,0,0,0,0,0,0,0,0,0,0,0,0,0,0,0,0,0,0,0,0,13,14,14,14,14,14,15,0,0,0,0,0,0,0,0,0,0,0,0,111,24,24,24,24,24,24,
24,24,24,113,0,0,0,0,0,0,0,0,0,0,0,0,0,0,0,0,0,0,0,0,0,0,0,0,0,0,0,0,0,0,0,0,0,0,0,0,0,0,0,0,0,0,0,0,0,0,0,0,0,0,0,0,0,0,0,0,0,0,0,111,24,24,24,24,24,24,
24,24,24,113,0,0,0,0,0,0,0,0,116,116,116,116,116,116,116,116,0,0,0,0,0,0,0,0,0,0,0,0,0,0,7,8,8,8,8,9,0,0,0,0,0,0,0,0,0,0,0,0,96,96,96,96,96,96,0,0,0,0,0,111,24,24,24,24,24,24,
24,24,24,113,0,0,0,0,0,0,0,0,138,138,138,138,138,138,138,138,0,0,0,0,0,0,0,0,0,0,0,0,0,0,29,30,30,30,30,31,0,0,0,0,0,0,0,0,0,0,0,0,118,118,118,118,118,118,0,0,0,0,0,111,24,24,24,24,24,24,
24,24,24,113,0,0,0,0,0,0,0,0,14,14,14,14,14,14,0,0,0,0,13,14,14,14,14,14,14,14,15,0,0,0,0,0,0,0,0,0,0,0,0,0,0,0,0,0,0,0,0,0,0,0,0,0,0,0,0,0,0,0,0,111,24,24,24,24,24,24,
24,24,24,113,0,0,0,0,0,0,0,0,0,0,0,0,0,0,0,0,0,0,0,0,0,0,0,0,0,0,0,0,0,0,0,0,0,0,0,0,0,0,0,0,0,0,0,0,0,0,0,0,0,0,0,0,0,0,0,0,0,0,0,111,24,24,24,24,24,24,
24,24,24,113,41,41,42,0,0,0,0,0,0,0,0,0,0,0,0,0,0,0,0,0,0,0,0,0,0,0,0,0,0,0,0,0,0,0,0,0,0,0,0,0,0,0,0,0,0,0,0,0,0,0,0,0,0,40,41,41,42,0,0,111,24,24,24,24,24,24,
24,24,24,113,0,0,0,0,0,0,0,0,0,0,0,0,0,0,0,0,0,0,0,0,0,0,0,0,0,0,0,0,0,0,0,0,0,0,0,0,0,0,0,0,0,0,0,0,0,0,0,0,0,0,0,0,0,0,0,0,0,0,0,111,24,24,24,24,24,24,
24,24,24,113,0,0,0,0,0,0,0,0,0,0,0,0,0,0,0,0,0,0,0,0,0,0,0,0,0,0,0,0,0,0,0,0,0,0,0,0,0,0,0,0,0,0,0,0,0,0,0,0,0,0,0,0,0,0,0,0,0,0,0,111,24,24,24,24,24,24,
24,24,24,113,35,0,0,0,0,0,0,0,0,0,0,0,0,0,0,0,0,0,0,0,0,0,0,0,0,0,0,0,0,0,0,0,0,0,0,0,0,0,0,0,0,0,0,0,0,0,0,0,0,0,0,0,0,0,0,0,0,0,0,111,24,24,24,24,24,24,
24,24,24,113,7,8,8,8,8,8,8,9,0,0,0,0,0,0,0,7,8,8,8,9,0,0,0,7,8,8,8,9,0,0,0,7,8,8,8,9,0,0,0,7,8,8,8,9,0,0,0,7,8,8,8,9,0,0,0,0,0,0,0,111,24,24,24,24,24,24,
24,24,24,113,29,30,30,30,30,30,30,31,0,0,0,0,0,0,0,29,30,30,30,31,0,0,0,29,30,30,30,31,0,0,0,29,30,30,30,31,0,0,0,29,30,30,30,31,0,0,0,29,30,30,30,31,0,0,0,0,0,0,0,111,24,24,24,24,24,24,
24,24,24,114,90,90,90,90,90,90,90,90,90,90,90,90,90,90,90,90,90,90,90,90,90,90,90,90,90,90,90,90,90,90,90,90,90,90,90,90,90,90,90,90,90,90,90,90,90,90,90,90,90,90,90,90,90,90,90,90,90,90,90,115,24,24,24,24,24,24,
24,24,24,24,24,24,24,24,24,24,24,24,24,24,24,24,24,24,24,24,24,24,24,24,24,24,24,24,24,24,24,24,24,24,24,24,24,24,24,24,24,24,24,24,24,24,24,24,24,24,24,24,24,24,24,24,24,24,24,24,24,24,24,24,24,24,24,24,24,24,
24,24,24,24,24,24,24,24,24,24,24,24,24,24,24,24,24,24,24,24,24,24,24,24,24,24,24,24,24,24,24,24,24,24,24,24,24,24,24,24,24,24,24,24,24,24,24,24,24,24,24,24,24,24,24,24,24,24,24,24,24,24,24,24,24,24,24,24,24,24,
24,24,24,24,24,24,24,24,24,24,24,24,24,24,24,24,24,24,24,24,24,24,24,24,24,24,24,24,24,24,24,24,24,24,24,24,24,24,24,24,24,24,24,24,24,24,24,24,24,24,24,24,24,24,24,24,24,24,24,24,24,24,24,24,24,24,24,24,24,24
</data>
 </layer>
 <objectgroup id="2" name="Spawnpoints">
  <object id="1" name="Player" type="Player" x="81.5" y="240" width="32" height="32"/>
  <object id="2" name="Apple" type="Fruit" x="141.5" y="222.5" width="32" height="32"/>
  <object id="3" name="Kiwi" type="Fruit" x="112" y="64" width="32" height="32"/>
  <object id="4" name="Strawberry" type="Fruit" x="279" y="80.5" width="32" height="32"/>
  <object id="5" name="Pineapple" type="Fruit" x="582.5" y="111" width="32" height="32"/>
  <object id="6" name="Melon" type="Fruit" x="745.5" y="77.5" width="32" height="32"/>
  <object id="7" name="Orange" type="Fruit" x="398" y="143.5" width="32" height="32"/>
  <object id="8" name="Cherries" type="Fruit" x="800" y="208" width="32" height="32"/>
  <object id="9" name="Chicken" type="Chicken" x="460.5" y="239.5" width="32" height="32">
   <properties>
    <property name="offNeg" type="float" value="3"/>
    <property name="offPos" type="float" value="3"/>
   </properties>
  </object>
  <object id="10" name="Bunny" type="Bunny" x="317" y="225" width="34" height="44">
   <properties>
    <property name="offNeg" type="float" value="3"/>
    <property name="offPos" type="float" value="3"/>
   </properties>
  </object>
  <object id="11" type="BlueBird" x="354.5" y="191.5" width="32" height="32">
   <properties>
    <property name="offNeg" type="float" value="5"/>
    <property name="offPos" type="float" value="6"/>
   </properties>
  </object>
  <object id="12" name="Mushroom" type="Mushroom" x="562.5" y="239" width="32" height="32">
   <properties>
    <property name="offNeg" type="float" value="3"/>
    <property name="offPos" type="float" value="3"/>
   </properties>
  </object>
  <object id="13" type="Saw" x="457.5" y="143" width="32" height="32">
   <properties>
    <property name="isVertical" type="bool" value="false"/>
    <property name="offNeg" type="float" value="2"/>
    <property name="offPos" type="float" value="2"/>
   </properties>
  </object>
  <object id="14" type="Saw" x="429" y="241" width="32" height="32">
   <properties>
    <property name="isVertical" type="bool" value="true"/>
    <property name="offNeg" type="float" value="3"/>
    <property name="offPos" type="float" value="3"/>
   </properties>
  </object>
  <object id="15" type="Saw" x="705" y="239" width="32" height="32">
   <properties>
    <property name="isVertical" type="bool" value="false"/>
    <property name="offNeg" type="float" value="2"/>
    <property name="offPos" type="float" value="2"/>
   </properties>
  </object>
  <object id="16" type="Fire" x="288" y="272" width="16" height="32"/>
  <object id="17" type="Fire" x="800" y="272.5" width="16" height="32"/>
  <object id="18" type="FallingPlatform" x="192" y="208" width="32" height="10"/>
  <object id="19" type="FallingPlatform" x="672" y="223.5" width="32" height="10"/>
  <object id="20" type="FallingPlatform" x="735" y="216.5" width="32" height="10"/>
  <object id="21" type="Checkpoint" x="943" y="193" width="64" height="64"/>
  <object id="23" type="Fire" x="256.5" y="272" width="16" height="32"/>
  <object id="24" type="Fire" x="225" y="271.5" width="16" height="32"/>
  <object id="25" type="Fire" x="192.5" y="272" width="16" height="32"/>
  <object id="26" type="Fire" x="768" y="273" width="16" height="32"/>
 </objectgroup>
 <objectgroup id="3" name="Collisions">
  <object id="30" x="48" y="48" width="16" height="272"/>
  <object id="31" x="64" y="48" width="960" height="16"/>
  <object id="32" x="1008" y="64" width="16" height="256"/>
  <object id="33" x="64" y="304" width="944" height="16"/>
  <object id="34" x="65.5" y="272.5" width="126" height="32"/>
  <object id="35" x="818" y="272.5" width="77" height="32"/>
  <object id="36" type="Platform" x="96" y="96" width="64" height="16"/>
  <object id="40" type="Platform" x="224" y="112" width="110.5" height="16"/>
  <object id="41" type="Platform" x="706" y="112" width="110" height="16"/>
  <object id="42" type="Platform" x="193.5" y="176.5" width="96" height="16"/>
  <object id="43" type="Platform" x="544" y="144.5" width="96" height="31.5"/>
  <object id="44" type="Platform" x="353" y="176" width="143" height="16"/>
  <object id="46" type="Platform" x="306" y="273.5" width="80" height="16"/>
  <object id="47" type="Platform" x="561.5" y="273" width="80" height="16"/>
  <object id="48" type="Platform" x="864" y="240" width="96" height="16"/>
  <object id="27" type="Platform" x="689.5" y="273" width="80" height="16"/>
  <object id="28" type="Platform" x="433.5" y="273" width="80" height="16"/>
  <object id="29" type="Platform" x="64.5" y="208" width="46.5" height="16"/>
  <object id="30" type="Platform" x="833.5" y="144" width="94.5" height="29"/>
 </objectgroup>
</map>
