<?xml version="1.0" encoding="UTF-8"?>
<map version="1.10" tiledversion="1.12.1" orientation="orthogonal" renderorder="right-down" width="40" height="23" tilewidth="16" tileheight="16" infinite="0" nextlayerid="4" nextobjectid="10">
 <tileset firstgid="1" source="Pixel Adventure.tsx"/>
 <layer id="1" name="Background" width="40" height="23">
  <properties>
   <property name="BackgroundColor" value="Gray"/>
  </properties>
  <data encoding="csv">
24,24,24,24,24,24,24,24,24,24,24,24,24,24,24,24,24,24,24,24,24,24,24,24,24,24,24,24,24,24,24,24,24,24,24,24,24,24,24,24,
24,24,24,24,24,24,24,24,24,24,24,24,24,24,24,24,24,24,24,24,24,24,24,24,24,24,24,24,24,24,24,24,24,24,24,24,24,24,24,24,
24,24,24,24,24,24,24,24,24,24,24,24,24,24,24,24,24,24,24,24,24,24,24,24,24,24,24,24,24,24,24,24,24,24,24,24,24,24,24,24,
24,24,24,92,134,134,134,134,134,134,134,134,134,134,134,134,134,134,134,134,134,134,134,134,134,134,134,134,134,134,134,134,134,134,134,134,93,24,24,24,
24,24,24,113,0,0,0,0,0,0,0,0,0,0,0,0,0,0,0,0,0,0,0,0,0,0,0,0,0,0,0,0,0,0,0,0,111,24,24,24,
24,24,24,113,0,0,0,0,0,0,0,0,0,0,0,0,0,0,0,0,0,0,0,0,0,0,0,0,0,0,0,0,0,0,0,0,111,24,24,24,
24,24,24,113,0,0,0,0,0,0,0,0,0,0,0,0,0,0,0,0,0,0,0,0,0,0,0,0,0,0,0,0,0,0,0,0,111,24,24,24,
24,24,24,113,41,41,42,0,0,0,0,0,0,0,0,0,0,0,0,0,0,0,0,0,0,0,0,0,0,0,0,0,0,0,0,0,111,24,24,24,
24,24,24,113,0,0,0,0,0,0,0,0,0,0,0,0,0,0,0,0,0,0,0,0,0,0,0,0,0,0,0,0,0,0,0,0,111,24,24,24,
24,24,24,113,0,0,0,0,0,0,0,0,0,0,0,0,0,0,0,0,0,0,0,0,0,0,0,0,0,0,0,0,0,0,0,0,111,24,24,24,
24,24,112,113,41,41,42,0,0,0,0,0,13,14,14,15,0,0,0,0,0,0,0,0,0,0,0,0,0,40,41,41,42,0,0,0,111,24,24,24,
24,24,112,113,0,0,0,0,0,0,0,0,0,0,0,0,0,0,0,0,0,0,0,0,0,0,0,0,0,0,0,0,0,0,0,0,111,24,24,24,
24,24,112,113,0,0,0,0,0,0,0,0,0,0,0,0,0,0,0,0,0,13,14,14,15,0,0,0,0,0,0,0,0,0,0,0,111,24,24,24,
24,24,112,113,41,41,42,0,0,0,0,0,0,0,0,0,0,0,0,0,0,0,0,0,0,0,0,0,0,40,41,41,42,7,8,9,111,24,24,24,
24,24,112,113,0,0,0,0,0,0,0,0,0,0,0,0,0,0,0,0,0,0,0,0,0,0,0,0,0,0,0,0,0,29,30,31,111,24,24,24,
24,24,24,113,35,0,0,0,0,0,0,0,0,0,0,0,0,0,0,0,0,0,0,0,0,0,0,0,0,0,0,0,0,29,30,31,111,24,24,24,
24,24,24,113,7,8,8,8,8,9,0,0,0,0,0,0,0,0,0,0,0,0,0,0,7,8,9,7,8,9,7,8,9,29,30,31,111,24,24,24,
24,24,24,113,29,30,30,30,30,31,0,0,0,0,0,0,0,0,0,0,0,0,0,0,29,30,31,29,30,31,29,30,31,29,30,31,111,24,24,24,
24,24,24,113,51,52,52,52,52,53,0,0,0,0,0,0,0,0,0,0,0,0,0,0,51,52,53,51,52,53,51,52,53,51,52,53,111,24,24,24,
24,24,24,114,90,90,90,90,90,90,90,90,90,90,90,90,90,90,90,90,90,90,90,90,90,90,90,90,90,90,90,90,90,90,90,90,115,24,24,24,
24,24,24,24,24,24,24,24,24,24,24,24,24,24,24,24,24,24,24,24,24,24,24,24,24,24,24,24,24,24,24,24,24,24,24,24,24,24,24,24,
24,24,24,24,24,24,24,24,24,24,24,24,24,24,24,24,24,24,24,24,24,24,24,24,24,24,24,24,24,24,24,24,24,24,24,24,24,24,24,24,
24,24,24,24,24,24,24,24,24,24,24,24,24,24,24,24,24,24,24,24,24,24,24,24,24,24,24,24,24,24,24,24,24,24,24,24,24,24,24,24
</data>
 </layer>
 <objectgroup id="2" name="Spawnpoints">
  <object id="1" name="Player" type="Player" x="96" y="224" width="32" height="32"/>
  <object id="2" name="Apple" type="Fruit" x="78.6667" y="78.6667" width="32" height="32"/>
  <object id="3" name="Bananas" type="Fruit" x="96" y="176" width="32" height="32"/>
  <object id="4" name="Cherries" type="Fruit" x="224" y="128" width="32" height="32"/>
  <object id="5" name="Kiwi" type="Fruit" x="464.667" y="128" width="32" height="32"/>
  <object id="6" type="Chicken" x="248.667" y="271.333" width="32" height="32">
   <properties>
    <property name="offNeg" type="float" value="4"/>
    <property name="offPos" type="float" value="4"/>
   </properties>
  </object>
  <object id="7" type="Saw" x="288" y="208" width="32" height="32">
   <properties>
    <property name="isVertical" type="bool" value="true"/>
    <property name="offNeg" type="float" value="3"/>
    <property name="offPos" type="float" value="3"/>
   </properties>
  </object>
  <object id="8" type="Checkpoint" x="528.667" y="192" width="64" height="64"/>
 </objectgroup>
 <objectgroup id="3" name="Collisions">
  <object id="7" x="48" y="48" width="16" height="272"/>
  <object id="8" x="64" y="48" width="528" height="16"/>
  <object id="9" x="576" y="64" width="16" height="256"/>
  <object id="10" x="64" y="304" width="512" height="16"/>
  <object id="11" x="64" y="240" width="16" height="16"/>
  <object id="12" x="64" y="256" width="96" height="48"/>
  <object id="13" x="192" y="160" width="64" height="16"/>
  <object id="14" x="336" y="192" width="64" height="16"/>
  <object id="15" x="432" y="256" width="96" height="48"/>
  <object id="16" type="Platform" x="464" y="208" width="64" height="16"/>
  <object id="17" type="Platform" x="464" y="160" width="64" height="16"/>
  <object id="18" type="Platform" x="64" y="160" width="48" height="16"/>
  <object id="19" type="Platform" x="64" y="112" width="48" height="16"/>
  <object id="20" type="Platform" x="64" y="208" width="48" height="16"/>
 </objectgroup>
</map>
