<?xml version="1.0" encoding="UTF-8"?>
<map version="1.10" tiledversion="1.12.1" orientation="orthogonal" renderorder="right-down" width="60" height="23" tilewidth="16" tileheight="16" infinite="0" nextlayerid="4" nextobjectid="14">
 <tileset firstgid="1" source="Pixel Adventure.tsx"/>
 <layer id="1" name="Background" width="60" height="23">
  <properties>
   <property name="BackgroundColor" value="Blue"/>
  </properties>
  <data encoding="csv">
24,24,24,24,24,24,24,24,24,24,24,24,24,24,24,24,24,24,24,24,24,24,24,24,24,24,24,24,24,24,24,24,24,24,24,24,24,24,24,24,24,24,24,24,24,24,24,24,24,24,24,24,24,24,24,24,24,24,24,24,
24,24,24,24,24,24,24,24,24,24,24,24,24,24,24,24,24,24,24,24,24,24,24,24,24,24,24,24,24,24,24,24,24,24,24,24,24,24,24,24,24,24,24,24,24,24,24,24,24,24,24,24,24,24,24,24,24,24,24,24,
24,24,24,24,24,24,24,24,24,24,24,24,24,24,24,24,24,24,24,24,24,24,24,24,24,24,24,24,24,24,24,24,24,24,24,24,24,24,24,24,24,24,24,24,24,24,24,24,24,24,24,24,24,24,24,24,24,24,24,24,
24,24,24,92,134,134,134,134,134,134,134,134,134,134,134,134,134,134,134,134,134,134,134,134,134,134,134,134,134,134,134,134,134,134,134,134,134,134,134,134,134,134,134,134,134,134,134,134,134,134,134,134,134,134,134,134,93,24,24,24,
24,24,24,113,0,0,0,0,0,0,0,0,0,0,0,0,0,0,0,0,0,0,0,0,0,0,0,0,0,0,0,0,0,0,0,0,0,0,0,0,0,0,0,0,0,0,0,0,0,0,0,0,0,0,0,0,111,24,24,24,
24,24,24,113,0,0,0,0,0,0,0,0,0,0,0,0,0,0,0,0,0,0,0,0,0,0,0,0,0,0,0,0,0,0,0,0,0,0,0,0,0,0,0,0,0,0,0,0,0,0,0,0,0,0,0,0,111,24,24,24,
24,24,24,113,0,0,0,0,0,0,0,0,0,0,0,0,0,0,0,0,0,0,0,0,0,0,0,0,0,0,0,0,0,0,0,0,0,0,0,0,0,0,0,0,0,0,0,0,0,0,0,0,0,0,0,0,111,24,24,24,
24,24,24,113,0,0,0,0,0,0,0,0,13,14,14,15,0,0,0,0,0,0,0,0,0,0,0,0,0,0,0,0,0,0,0,0,0,0,0,0,0,0,0,0,0,0,0,0,0,0,0,0,0,0,0,0,111,24,24,24,
24,24,24,113,0,0,0,0,0,0,0,0,0,0,0,0,0,0,0,0,0,0,0,0,0,0,0,0,0,0,0,0,0,0,0,13,14,14,15,0,0,0,0,0,0,0,0,0,0,0,0,0,0,0,0,0,111,24,24,24,
24,24,24,113,0,0,0,0,0,0,0,0,0,0,0,0,0,0,0,0,13,14,14,15,0,0,0,0,0,0,0,0,0,0,0,0,0,0,0,0,0,0,0,0,0,0,0,0,0,0,0,0,0,0,0,0,111,24,24,24,
24,24,112,113,0,0,0,0,0,0,0,0,0,0,0,0,0,0,0,0,0,0,0,0,0,0,0,0,0,0,0,0,0,0,0,0,0,0,0,0,0,0,0,0,0,0,0,0,0,0,0,0,0,0,0,0,111,24,24,24,
24,24,112,113,0,0,0,0,0,0,0,0,0,0,0,0,0,0,0,0,0,0,0,0,0,0,0,0,0,0,0,0,0,0,0,0,0,0,0,0,0,0,0,0,0,0,0,0,0,0,0,0,0,0,0,0,111,24,24,24,
24,24,112,113,41,41,42,0,0,0,0,0,0,0,0,0,0,0,0,0,0,0,0,0,0,0,0,0,0,0,0,0,0,0,0,0,0,0,0,0,0,0,0,0,0,0,0,0,0,40,41,41,42,0,0,0,111,24,24,24,
24,24,112,113,0,0,0,0,0,0,0,0,0,0,0,0,0,0,0,0,0,0,0,0,0,0,0,0,0,0,0,0,0,0,0,0,0,0,0,0,0,0,0,0,0,0,0,0,0,0,0,0,0,0,0,0,111,24,24,24,
24,24,112,113,0,0,0,0,0,0,0,0,0,0,0,0,0,0,0,0,0,0,0,0,0,0,0,0,0,0,0,0,0,0,0,0,0,0,0,0,0,0,0,0,0,0,0,0,0,0,0,0,0,0,0,0,111,24,24,24,
24,24,24,113,35,0,0,0,0,0,0,0,0,0,0,0,0,0,0,0,0,0,0,0,0,0,0,0,0,0,0,0,0,0,0,0,0,0,0,0,0,0,0,0,0,0,0,0,0,0,0,0,0,0,0,0,111,24,24,24,
24,24,24,113,7,8,8,8,9,0,0,0,0,0,7,8,9,0,0,0,7,8,9,0,0,0,7,8,9,0,0,0,7,8,9,0,0,0,7,8,9,0,0,0,7,8,9,0,0,0,7,8,9,0,0,0,111,24,24,24,
24,24,24,113,29,30,30,30,31,0,0,0,0,0,29,30,31,0,0,0,29,30,31,0,0,0,29,30,31,0,0,0,29,30,31,0,0,0,29,30,31,0,0,0,29,30,31,0,0,0,29,30,31,0,0,0,111,24,24,24,
24,24,24,113,51,52,52,52,53,0,0,0,0,0,51,52,53,0,0,0,51,52,53,0,0,0,51,52,53,0,0,0,51,52,53,0,0,0,51,52,53,0,0,0,51,52,53,0,0,0,51,52,53,0,0,0,111,24,24,24,
24,24,24,114,90,90,90,90,90,90,90,90,90,90,90,90,90,90,90,90,90,90,90,90,90,90,90,90,90,90,90,90,90,90,90,90,90,90,90,90,90,90,90,90,90,90,90,90,90,90,90,90,90,90,90,90,115,24,24,24,
24,24,24,24,24,24,24,24,24,24,24,24,24,24,24,24,24,24,24,24,24,24,24,24,24,24,24,24,24,24,24,24,24,24,24,24,24,24,24,24,24,24,24,24,24,24,24,24,24,24,24,24,24,24,24,24,24,24,24,24,
24,24,24,24,24,24,24,24,24,24,24,24,24,24,24,24,24,24,24,24,24,24,24,24,24,24,24,24,24,24,24,24,24,24,24,24,24,24,24,24,24,24,24,24,24,24,24,24,24,24,24,24,24,24,24,24,24,24,24,24,
24,24,24,24,24,24,24,24,24,24,24,24,24,24,24,24,24,24,24,24,24,24,24,24,24,24,24,24,24,24,24,24,24,24,24,24,24,24,24,24,24,24,24,24,24,24,24,24,24,24,24,24,24,24,24,24,24,24,24,24
</data>
 </layer>
 <objectgroup id="2" name="Spawnpoints">
  <object id="1" name="Player" type="Player" x="80" y="224" width="32" height="32"/>
  <object id="2" name="Apple" type="Fruit" x="96" y="176" width="32" height="32"/>
  <object id="3" name="Orange" type="Fruit" x="194.641" y="79.1757" width="32" height="32"/>
  <object id="4" name="Kiwi" type="Fruit" x="336" y="112" width="32" height="32"/>
  <object id="5" name="Melon" type="Fruit" x="464" y="112" width="32" height="32"/>
  <object id="6" name="Pineapple" type="Fruit" x="592" y="176" width="32" height="32"/>
  <object id="7" name="Bananas" type="Fruit" x="760" y="144" width="32" height="32"/>
  <object id="8" type="BlueBird" x="320.724" y="186.418" width="32" height="32">
   <properties>
    <property name="offNeg" type="float" value="4"/>
    <property name="offPos" type="float" value="6"/>
   </properties>
  </object>
  <object id="9" name="Chicken" type="Chicken" x="432" y="272" width="32" height="32">
   <properties>
    <property name="offNeg" type="float" value="5"/>
    <property name="offPos" type="float" value="4"/>
   </properties>
  </object>
  <object id="10" type="Saw" x="160" y="240" width="32" height="32">
   <properties>
    <property name="isVertical" type="bool" value="false"/>
    <property name="offNeg" type="float" value="2"/>
    <property name="offPos" type="float" value="3"/>
   </properties>
  </object>
  <object id="11" type="Fire" x="576" y="272" width="16" height="32"/>
  <object id="12" type="Checkpoint" x="815.153" y="239.253" width="64" height="64"/>
 </objectgroup>
 <objectgroup id="3" name="Collisions">
  <object id="50" x="48" y="48" width="16" height="272"/>
  <object id="51" x="64" y="48" width="832" height="16"/>
  <object id="52" x="897.994" y="64.9471" width="16" height="256"/>
  <object id="53" x="64" y="304" width="832" height="16"/>
  <object id="54" x="64" y="288" width="96" height="16"/>
  <object id="55" type="Platform" x="191.053" y="112.646" width="64" height="16"/>
  <object id="56" type="Platform" x="320" y="144" width="64" height="16"/>
  <object id="57" type="Platform" x="560.802" y="126.953" width="64" height="16"/>
  <object id="58" type="Platform" x="752" y="224" width="64" height="16"/>
  <object id="59" type="Platform" x="784.2" y="191.153" width="64" height="16"/>
  <object id="60" x="176" y="272" width="256" height="32"/>
  <object id="61" x="560" y="272" width="32" height="32"/>
 </objectgroup>
</map>
