<?xml version="1.0" encoding="UTF-8"?>
<map version="1.10" tiledversion="1.12.1" orientation="orthogonal" renderorder="right-down" width="40" height="23" tilewidth="16" tileheight="16" infinite="0" nextlayerid="4" nextobjectid="10">
 <tileset firstgid="1" source="Pixel Adventure.tsx"/>
 <layer id="1" name="Background" width="40" height="23">
  <properties>
   <property name="BackgroundColor" value="Gray"/>
  </properties>
  <data encoding="csv">
24,24,24,24,24,24,24,24,24,24,24,24,24,24,24,24,24,24,24,24,24,24,24,24,24,24,24,24,24,24,24,24,24,24,24,24,24,24,24,24,
24,24,24,24,24,24,24,24,24,24,24,24,24,24,24,24,24,24,24,24,24,24,24,24,24,24,24,24,24,24,24,24,24,24,24,24,24,24,24,24,
24,24,24,24,24,24,24,24,24,24,24,24,24,24,24,24,24,24,24,24,24,24,24,24,24,24,24,24,24,24,24,24,24,24,24,24,24,24,24,24,
24,24,24,92,134,134,134,134,134,134,134,134,134,134,134,134,134,134,134,134,134,134,134,134,134,134,134,134,134,134,134,134,134,134,134,134,93,24,24,24,
24,24,24,113,0,0,0,0,0,0,0,0,0,0,0,0,0,0,0,0,0,0,0,0,0,0,0,0,0,0,0,0,0,0,0,0,111,24,24,24,
24,24,24,113,0,0,0,0,0,0,0,0,0,0,0,0,0,0,0,0,0,0,0,0,0,0,0,0,0,0,0,0,0,0,0,0,111,24,24,24,
24,24,24,113,0,0,0,0,0,0,0,0,0,0,0,0,0,0,0,0,0,0,0,0,0,0,0,0,0,0,0,0,0,0,0,0,111,24,24,24,
24,24,24,113,40,41,42,0,0,0,0,0,0,0,0,0,0,0,0,0,0,0,0,0,0,0,0,0,0,0,0,0,0,0,0,0,111,24,24,24,
24,24,24,113,50,0,50,0,0,0,0,0,0,0,0,0,0,0,0,0,0,0,0,0,0,0,0,0,0,50,50,50,0,0,0,0,111,24,24,24,
24,24,24,113,50,0,0,50,50,50,50,50,50,50,50,50,50,0,0,0,0,0,0,0,0,0,0,0,0,50,0,0,50,40,41,42,111,24,24,24,
24,24,112,113,40,41,42,50,50,0,0,0,50,50,50,50,50,0,0,0,0,0,0,0,0,0,50,50,50,50,50,50,50,50,0,0,111,24,24,24,
24,24,112,113,50,50,50,50,50,50,50,50,40,41,42,0,0,50,50,50,50,50,50,0,0,40,41,42,0,50,0,0,0,0,0,0,111,24,24,24,
24,24,112,113,50,50,50,50,50,0,0,0,0,0,50,0,0,50,50,50,50,50,50,50,50,50,0,0,50,50,0,0,0,0,0,0,111,24,24,24,
24,24,112,113,40,41,42,0,0,0,0,0,0,0,0,0,0,0,0,0,0,0,50,50,0,0,0,0,50,50,50,50,50,40,41,42,111,24,24,24,
24,24,112,113,50,50,0,0,0,0,0,0,0,0,0,0,0,0,0,0,0,0,0,0,0,0,0,0,0,0,0,0,0,56,56,56,111,24,24,24,
24,24,24,113,50,50,0,0,0,0,0,0,0,0,0,0,0,0,0,0,0,0,0,0,0,0,0,0,0,0,0,0,0,56,56,56,111,24,24,24,
24,24,24,113,7,8,8,8,8,8,8,8,8,8,8,8,8,8,8,8,8,8,8,8,8,8,8,8,8,8,8,8,8,8,8,9,111,24,24,24,
24,24,24,113,29,30,30,30,30,30,30,30,30,30,30,30,30,30,30,30,30,30,30,30,30,30,30,30,30,30,30,30,30,30,30,31,111,24,24,24,
24,24,24,113,51,52,52,52,52,52,52,52,52,52,52,52,52,52,52,52,52,52,52,52,52,52,52,52,52,52,52,52,52,52,52,53,111,24,24,24,
24,24,24,114,90,90,90,90,90,90,90,90,90,90,90,90,90,90,90,90,90,90,90,90,90,90,90,90,90,90,90,90,90,90,90,90,115,24,24,24,
24,24,24,24,24,24,24,24,24,24,24,24,24,24,24,24,24,24,24,24,24,24,24,24,24,24,24,24,24,24,24,24,24,24,24,24,24,24,24,24,
24,24,24,24,24,24,24,24,24,24,24,24,24,24,24,24,24,24,24,24,24,24,24,24,24,24,24,24,24,24,24,24,24,24,24,24,24,24,24,24,
24,24,24,24,24,24,24,24,24,24,24,24,24,24,24,24,24,24,24,24,24,24,24,24,24,24,24,24,24,24,24,24,24,24,24,24,24,24,24,24
</data>
 </layer>
 <objectgroup id="3" name="Collisions">
  <object id="7" x="48" y="48" width="16" height="272"/>
  <object id="8" x="64" y="48" width="528" height="16"/>
  <object id="9" x="576" y="64" width="16" height="256"/>
  <object id="10" x="64" y="304" width="512" height="16"/>
  <object id="12" x="64" y="256" width="512.081" height="48"/>
  <object id="13" x="192.631" y="176.416" width="46.9527" height="16"/>
  <object id="14" x="399.77" y="176.215" width="47.5841" height="16"/>
  <object id="16" type="Platform" x="529.664" y="208" width="45.0586" height="16"/>
  <object id="17" type="Platform" x="528.401" y="144.215" width="46.9527" height="16"/>
  <object id="18" type="Platform" x="64" y="160" width="48" height="16"/>
  <object id="19" type="Platform" x="64" y="112" width="48" height="16"/>
  <object id="20" type="Platform" x="64" y="208" width="48" height="16"/>
 </objectgroup>
</map>
